assets/icons/lock-filled.svg

<?xml version="1.0" encoding="UTF-8" standalone="no"?>
<svg viewBox="0 0 24 24" height="24" id="svg7384" version="1.1" width="24" sodipodi:docname="lock-filled.svg" inkscape:version="1.1 (ce6663b3b7, 2021-05-25)"
   xmlns:inkscape="http://www.inkscape.org/namespaces/inkscape"
   xmlns:sodipodi="http://sodipodi.sourceforge.net/DTD/sodipodi-0.dtd"
   xmlns="http://www.w3.org/2000/svg"
   xmlns:svg="http://www.w3.org/2000/svg"
   xmlns:rdf="http://www.w3.org/1999/02/22-rdf-syntax-ns#"
   xmlns:cc="http://creativecommons.org/ns#"
   xmlns:dc="http://purl.org/dc/elements/1.1/">
   <sodipodi:namedview id="namedview23" pagecolor="#ffffff" bordercolor="#666666" borderopacity="1.0" inkscape:pageshadow="2" inkscape:pageopacity="0.0" inkscape:pagecheckerboard="0" showgrid="true" width="24px" inkscape:zoom="19.798742" inkscape:cx="10.177414" inkscape:cy="10.429955" inkscape:window-width="1920" inkscape:window-height="1016" inkscape:window-x="0" inkscape:window-y="27" inkscape:window-maximized="1" inkscape:current-layer="svg7384">
      <inkscape:grid type="xygrid" id="grid941" />
   </sodipodi:namedview>
   <metadata id="metadata20854">
      <rdf:RDF>
         <cc:Work rdf:about="">
            <dc:format>image/svg+xml</dc:format>
            <dc:type rdf:resource="http://purl.org/dc/dcmitype/StillImage" />
         </cc:Work>
      </rdf:RDF>
   </metadata>
   <defs id="defs7386">
      <linearGradient id="linearGradient5606" inkscape:swatch="solid">
         <stop id="stop5608" offset="0" style="stop-color:#000000;stop-opacity:1;" />
      </linearGradient>
      <linearGradient id="linearGradient4526" inkscape:swatch="solid">
         <stop id="stop4528" offset="0" style="stop-color:#ffffff;stop-opacity:1;" />
      </linearGradient>
      <linearGradient id="linearGradient3600-4" inkscape:swatch="gradient">
         <stop id="stop3602-7" offset="0" style="stop-color:#f4f4f4;stop-opacity:1" />
         <stop id="stop3604-6" offset="1" style="stop-color:#dbdbdb;stop-opacity:1" />
      </linearGradient>
   </defs>
   <path id="rect903" style="color:#000000;fill:#808080;fill-opacity:1;fill-rule:evenodd;stroke-width:2;stroke-linecap:square;-inkscape-stroke:none" d="M 12 2 C 9.2385762 1.9999999 7 4.2385762 7 7 L 7 11 L 5 11 L 5 22 L 19 22 L 19 11 L 17 11 L 17 7 C 17 4.2385763 14.761424 2 12 2 z M 12 3 C 14.209139 3 16 4.790861 16 7 L 16 11 L 8 11 L 8 7 C 8 4.790861 9.790861 2.9999999 12 3 z M 11 15 L 13 15 L 13 18 L 11 18 L 11 15 z " />
   <g id="layer9" label="status" style="display:inline;fill:#808080;fill-opacity:1" transform="translate(-733.00024,187)" />
   <g id="layer2" style="display:inline;fill:#808080;fill-opacity:1" transform="translate(-492.00004,-180)" />
   <g id="layer4" style="display:inline;fill:#808080;fill-opacity:1" transform="translate(-492.00004,-180)" />
   <g id="g1812" style="display:inline;fill:#808080;fill-opacity:1" transform="translate(-492.00004,-180)" />
   <g id="g6217" style="display:inline;fill:#808080;fill-opacity:1" transform="translate(-492.00004,-180)" />
   <g id="layer3" style="display:inline;fill:#808080;fill-opacity:1" transform="translate(-492.00004,-180)" />
   <g id="layer1" style="display:inline;fill:#808080;fill-opacity:1" transform="translate(-492.00004,-180)" />
</svg>

<svg height="24" width="24" xmlns="http://www.w3.org/2000/svg"><path style="color:#000;fill:gray;fill-opacity:1;stroke-width:2;stroke-linecap:square;-inkscape-stroke:none" d="M12 2a5 5 0 0 0-5 5v4H5v11h14V11h-2V7a5 5 0 0 0-5-5zm0 1a4 4 0 0 1 4 4v4H8V7a4 4 0 0 1 4-4zm-1 12h2v3h-2v-3z"/></svg>
